X: 1
T:Young Collins, Oddington
M:4/4
L:1/8
A:Oddington
P:A(A2B)3
K:G
P:A
|:GABc d2d2|c2dc B3B |c2Ac B2GB|A2F2 G4:|
P:B
|:E2E2 EFGA|B2B2 B3 B|c2c2 BcBA|d2d2 d4 |
  GABc d2d2|c2dc B3B |c2Ac B2GB|A2F2 G4:|
